X:1
T:August Boarisch
C:Simon Wascher
R:schottisch
A:Oesterreich
F:http://simonwascher.info/
M:2/4
L:1/16
K:C
e2g2 gece | e2d2 dcBA | G3G A3B | cBcd eGce |\
e2e2 gece | e2d2 dcBA |1 G2G2 A2B2 | cBcd c4 :|\
                      [2  G2G2 AGAB | c2ed "fine"c4 ||
G2G2 AGAB | cBcd eGce | G2fe dcBA | G2ed cBAG |\
G2G2 A3B | cBcd e4 | Gffe dcBd |1 c2ed c4 :|\
                               [2 "da capo al fine"c2e2c4 |]
%%wordsfont Times-Italic 11pt
W:aus Simon Waschers TradArchiv
